X:7220
T:the Polygon
O:england
M:6/8
L:1/8
K:D
(f/g/)|afd ecA|dBG {G}F2E|DFA Bgf|efd {d}c2
(f/g/)|afd ecA|dBG    F2E|DFA Bgd|edc    d2::
Ace gec|Adf    afd|Ace gec|Bed    c3 |\
Ace gec|Adf    afd|AcA Bgf|edc    d3:|


